resources/icons/16px/layout-sorted-clusters.svg

<svg xmlns="http://www.w3.org/2000/svg" viewBox="0 0 16 16">
  <path d="M2 6C.9 6 0 6.9 0 8s.9 2 2 2 2-.9 2-2-.9-2-2-2m0 6c-1.1 0-2 .9-2 2s.9 2 2 2 2-.9 2-2-.9-2-2-2M2 0C.9 0 0 .9 0 2s.9 2 2 2 2-.9 2-2-.9-2-2-2m12 6c-1.1 0-2 .9-2 2s.9 2 2 2 2-.9 2-2-.9-2-2-2M8 9c-1.1 0-2 .9-2 2s.9 2 2 2 2-.9 2-2-.9-2-2-2m0-6c-1.1 0-2 .9-2 2s.9 2 2 2 2-.9 2-2-.9-2-2-2"/>
</svg>

<?xml version="1.0" encoding="utf-8"?>
<!-- Generator: Adobe Illustrator 18.1.0, SVG Export Plug-In . SVG Version: 6.00 Build 0)  -->
<svg version="1.1" id="Layer_1" xmlns="http://www.w3.org/2000/svg" xmlns:xlink="http://www.w3.org/1999/xlink" x="0px" y="0px"
	 viewBox="0 0 16 16" enable-background="new 0 0 16 16" xml:space="preserve">
<g id="layout_sorted_clusters">
	<g>
		<path fill-rule="evenodd" clip-rule="evenodd" d="M2,6C0.9,6,0,6.9,0,8s0.9,2,2,2s2-0.9,2-2S3.1,6,2,6z M2,12c-1.1,0-2,0.9-2,2
			s0.9,2,2,2s2-0.9,2-2S3.1,12,2,12z M2,0C0.9,0,0,0.9,0,2s0.9,2,2,2s2-0.9,2-2S3.1,0,2,0z M14,6c-1.1,0-2,0.9-2,2s0.9,2,2,2
			s2-0.9,2-2S15.1,6,14,6z M8,9c-1.1,0-2,0.9-2,2s0.9,2,2,2s2-0.9,2-2S9.1,9,8,9z M8,3C6.9,3,6,3.9,6,5s0.9,2,2,2s2-0.9,2-2
			S9.1,3,8,3z"/>
	</g>
</g>
</svg>
